UI/Misc/SVG/car-wifi-off_solid_24px.svg

<svg width="24" height="24" viewBox="0 0 24 24" fill="none" xmlns="http://www.w3.org/2000/svg">
<path d="M22.0001 11H19.4501L18.5901 9.82L18.5201 9.73L17.0501 11.2C17.15 11.2649 17.2352 11.3501 17.3001 11.45L19.0001 14H14.2501L8.25005 20H16.0001V21C16.0001 21.2652 16.1054 21.5196 16.2929 21.7071C16.4805 21.8946 16.7348 22 17.0001 22H20.0001C20.5305 22 21.0392 21.7893 21.4143 21.4142C21.7893 21.0391 22.0001 20.5304 22.0001 20V15.06C22.003 14.6995 21.887 14.348 21.6701 14.06L20.9001 13H22.0001V11ZM20.0001 18H16.0001V16H20.0001V18ZM7.00005 9C6.69043 9.00835 6.38668 9.08642 6.11139 9.22839C5.83611 9.37036 5.59638 9.57258 5.41005 9.82L4.55005 11H2.00005V13H3.10005L2.33005 14.06C2.11312 14.348 1.99714 14.6995 2.00005 15.06V17.76L5.76005 14H5.00005L6.70005 11.45C6.79157 11.311 6.91633 11.1971 7.063 11.1185C7.20968 11.0399 7.37365 10.9992 7.54005 11H8.76005L8.88005 10.88L7.00005 9ZM12.0001 6C12.524 5.99754 13.0457 6.06822 13.5501 6.21L11.7401 8C10.7696 8.0646 9.856 8.48053 9.17005 9.17L7.76005 7.76C8.31468 7.20001 8.97521 6.756 9.70315 6.45383C10.4311 6.15167 11.2119 5.9974 12.0001 6ZM12.0001 2C13.6085 1.99963 15.1933 2.38726 16.6201 3.13L15.1201 4.63C14.1318 4.21623 13.0714 4.00211 12.0001 4C9.87971 4.00363 7.84754 4.84887 6.35005 6.35L4.93005 4.93C6.80498 3.05451 9.34811 2.00057 12.0001 2ZM22.0001 3.43L3.41005 22L2.00005 20.59L20.5701 2L22.0001 3.43Z" fill="#0F1621"/>
</svg>

<svg xmlns="http://www.w3.org/2000/svg" width="24" height="24" viewBox="0 0 24 24"><rect width="24" height="24" style="fill:none"/><path d="M22,11H19.45l-.86-1.18-.07-.09L17.05,11.2a.85.85,0,0,1,.25.25L19,14H14.25l-6,6H16v1a1,1,0,0,0,1,1h3a2,2,0,0,0,2-2V15.06a1.64,1.64,0,0,0-.33-1L20.9,13H22Zm-2,7H16V16h4ZM7,9a2.06,2.06,0,0,0-1.59.82L4.55,11H2v2H3.1l-.77,1.06a1.64,1.64,0,0,0-.33,1v2.7L5.76,14H5l1.7-2.55A1,1,0,0,1,7.54,11H8.76l.12-.12Zm5-3a5.63,5.63,0,0,1,1.55.21L11.74,8A4,4,0,0,0,9.17,9.17L7.76,7.76A5.94,5.94,0,0,1,12,6Zm0-4a10,10,0,0,1,4.62,1.13l-1.5,1.5A8.12,8.12,0,0,0,12,4,8,8,0,0,0,6.35,6.35L4.93,4.93A10,10,0,0,1,12,2ZM22,3.43,3.41,22,2,20.59,20.57,2Z"/></svg>
